X: 1
T:Gan Ainm
S:Denis Brooks
Z:This, together with the following two polkas, makes a nice set.
R:polka
E:11.5
I:speed 450
M:2/4
K:D
B|A2D2 F2A2|G2F2 E2FG|A2D2 F2A2|d4 c2B2|A2D2 F2A2|G2F2 E2d2|cBA2 B2c2|d4 d3:|
e|f2ga g2f2|e2c2 A2d2|f2ga g2f2|e4 e2g2|f2ga g2f2|e2c2 A3A|B2A2 B2c2|d4 d3:|
